src/assets/icons/bilibili.svg

<?xml version="1.0" encoding="UTF-8"?><!DOCTYPE svg><svg width="337pt" height="327pt" version="1.1" viewBox="0 0 337 327" xmlns="http://www.w3.org/2000/svg"><path d="m137.5 87c19.48-0.86 39-0.38 58.5-0.38 2.92 0 5.86-0.01 8.78 0.29 10.11 1.21 20.35-0.12 30.44 1.28 5.92 0.48 11.9 0.11 17.8 1.1 8.06 0.39 16.19 0.52 24.14 2.08 6.67 1.3 11.97 6.36 15.34 12.03 3.11 5.27 2.93 11.56 3.64 17.44 0.89 12.71 2.42 25.38 2.51 38.14 1.92 30.57 0.36 61.23-2.15 91.72-0.61 6.26-0.54 12.85-3.42 18.61-3.87 7.53-11.56 13.1-20.1 13.71-14.25 1.01-28.49 2.32-42.78 2.73-12.02 1.17-24.14 0.31-36.16 1.51-16.69 0.12-33.37 0.14-50.05-0.01-11.65-1.19-23.39-0.37-35.03-1.52-13.67-0.36-27.29-1.53-40.93-2.4-5.34-0.46-10.9-1.12-15.55-4-6.87-4.11-10.99-11.92-11.52-19.8-2.07-26.8-3.53-53.65-3.25-80.53 0.81-22.24 1.68-44.49 3.85-66.65 0.77-8.12 6.06-15.55 13.33-19.17 5.54-2.65 11.8-2.54 17.79-2.94 5.53-0.83 11.14-0.55 16.67-1.35 5.5-0.62 11.04-0.15 16.54-0.73 10.49-1.32 21.11-0.14 31.61-1.16m-13.08 52.73c-17.63 4.94-35.13 10.52-52.01 17.67-3.41 1.65-7.37 3-9.6 6.28-3.48 7.19-0.26 18.25 8.34 19.85 5.61 0.55 10.72-2.46 15.89-4.18 13.84-5.41 27.85-10.39 42-14.93 2.89-1.01 6.11-1.91 8.04-4.47 3.24-4.15 3.09-10.28 0.45-14.69-2.4-4.73-8.03-7.11-13.11-5.53m81.99-0.14c-7.85 2.03-11.51 12.78-7.27 19.49 2 3.12 5.68 4.29 9 5.41 11.03 3.35 21.76 7.58 32.63 11.37 6.88 2.35 13.43 5.66 20.49 7.47 3.62 0.98 7.6-0.16 10.18-2.88 3.82-4.27 4.86-10.76 2.92-16.1-0.96-2.72-3.79-3.9-6.16-5.1-14.63-6.84-30.11-11.56-45.42-16.59-5.35-1.4-10.72-3.89-16.37-3.07m-86.87 59.07c-1.12 5.14 0.89 10.3 2.85 14.98 3.21 7.35 8.87 14.41 16.96 16.46 5.71 1.04 11.93 1.16 17.22-1.57 4.81-2.14 8.16-6.35 11.64-10.12 3.79 3.67 7.16 8.06 12.12 10.23 4.99 2.45 10.81 2.44 16.19 1.59 9.48-2.12 15.66-10.85 18.84-19.49 1.21-3.78 3-7.89 1.75-11.88-1.2-3.91-7.27-4.4-9.47-1.24-2.46 5.23-3.47 11.22-7.15 15.84-2.28 2.91-5.68 5.26-9.52 5.1-6.53 0.46-11.27-5.14-14.2-10.3-2.35-3.87-3.71-9.53-8.78-10.62-3.11 0.53-5.11 3.31-6.27 6.04-2.25 5.03-5.05 10.15-9.84 13.19-4.16 2.63-10.03 2.31-13.6-1.18-5.18-4.32-6.46-11.21-8.92-17.12-1.68-4.21-8.13-4-9.82 0.09z" fill="#fefefe"/><g fill="#25aee5"><path d="m99.96 11.67c5.61-2.16 12.7-1.05 16.57 3.81 5.84 7 10.84 14.66 16.04 22.14 3.9 5.54 6.78 11.77 11.14 16.99 16.44-0.07 32.87 0.03 49.3-0.06 4.68-7.51 9.07-15.2 14.3-22.35 4.38-5.9 8.07-12.37 13.18-17.69 6.03-5.84 16.21-4.48 22.1 0.88 5.09 4.34 8.98 12.03 5.72 18.54-4.21 7.97-10.54 14.54-15.22 22.22 14.31 0.51 28.6 1.44 42.87 2.62 14.95 1.3 29.44 8.57 38.8 20.41 8.11 9.7 12.19 22.29 12.81 34.82 3.36 32.88 4.84 65.99 3.43 99.03-0.6 14.46-1.63 28.91-2.88 43.34-0.73 7.18-1.37 14.46-3.88 21.29-6.19 17.41-21.44 31.43-39.46 35.71-12.25 2.69-24.87 2.4-37.3 3.58-17.45 1.46-34.99 1.22-52.47 2.32-17.01 0.1-34.02 0.21-51.03-0.12-10.31-0.68-20.66-0.65-30.99-0.84-18.81-1.7-37.78-1.6-56.52-4.18-18.53-2.63-35.21-15.42-42.61-32.6-4.13-8.98-5.11-18.93-5.51-28.67-3.84-46.22-3.37-92.77 0.99-138.93 0.42-8.5 2.33-17 6.21-24.61 7.54-15.29 22.48-26.54 39.28-29.47 15.95-2.12 32.07-2.7 48.13-3.71-4.29-7.67-10.74-13.9-14.89-21.64-3.77-9.26 2.61-20.11 11.89-22.83m37.54 75.33c-10.5 1.02-21.12-0.16-31.61 1.16-5.5 0.58-11.04 0.11-16.54 0.73-5.53 0.8-11.14 0.52-16.67 1.35-5.99 0.4-12.25 0.29-17.79 2.94-7.27 3.62-12.56 11.05-13.33 19.17-2.17 22.16-3.04 44.41-3.85 66.65-0.28 26.88 1.18 53.73 3.25 80.53 0.53 7.88 4.65 15.69 11.52 19.8 4.65 2.88 10.21 3.54 15.55 4 13.64 0.87 27.26 2.04 40.93 2.4 11.64 1.15 23.38 0.33 35.03 1.52 16.68 0.15 33.36 0.13 50.05 0.01 12.02-1.2 24.14-0.34 36.16-1.51 14.29-0.41 28.53-1.72 42.78-2.73 8.54-0.61 16.23-6.18 20.1-13.71 2.88-5.76 2.81-12.35 3.42-18.61 2.51-30.49 4.07-61.15 2.15-91.72-0.09-12.76-1.62-25.43-2.51-38.14-0.71-5.88-0.53-12.17-3.64-17.44-3.37-5.67-8.67-10.73-15.34-12.03-7.95-1.56-16.08-1.69-24.14-2.08-5.9-0.99-11.88-0.62-17.8-1.1-10.09-1.4-20.33-0.07-30.44-1.28-2.92-0.3-5.86-0.29-8.78-0.29-19.5 0-39.02-0.48-58.5 0.38z"/><path d="m124.42 139.73c5.08-1.58 10.71 0.8 13.11 5.53 2.64 4.41 2.79 10.54-0.45 14.69-1.93 2.56-5.15 3.46-8.04 4.47-14.15 4.54-28.16 9.52-42 14.93-5.17 1.72-10.28 4.73-15.89 4.18-8.6-1.6-11.82-12.66-8.34-19.85 2.23-3.28 6.19-4.63 9.6-6.28 16.88-7.15 34.38-12.73 52.01-17.67z"/><path d="m206.41 139.59c5.65-0.82 11.02 1.67 16.37 3.07 15.31 5.03 30.79 9.75 45.42 16.59 2.37 1.2 5.2 2.38 6.16 5.1 1.94 5.34 0.9 11.83-2.92 16.1-2.58 2.72-6.56 3.86-10.18 2.88-7.06-1.81-13.61-5.12-20.49-7.47-10.87-3.79-21.6-8.02-32.63-11.37-3.32-1.12-7-2.29-9-5.41-4.24-6.71-0.58-17.46 7.27-19.49z"/><path d="m119.54 198.66c1.69-4.09 8.14-4.3 9.82-0.09 2.46 5.91 3.74 12.8 8.92 17.12 3.57 3.49 9.44 3.81 13.6 1.18 4.79-3.04 7.59-8.16 9.84-13.19 1.16-2.73 3.16-5.51 6.27-6.04 5.07 1.09 6.43 6.75 8.78 10.62 2.93 5.16 7.67 10.76 14.2 10.3 3.84 0.16 7.24-2.19 9.52-5.1 3.68-4.62 4.69-10.61 7.15-15.84 2.2-3.16 8.27-2.67 9.47 1.24 1.25 3.99-0.54 8.1-1.75 11.88-3.18 8.64-9.36 17.37-18.84 19.49-5.38 0.85-11.2 0.86-16.19-1.59-4.96-2.17-8.33-6.56-12.12-10.23-3.48 3.77-6.83 7.98-11.64 10.12-5.29 2.73-11.51 2.61-17.22 1.57-8.09-2.05-13.75-9.11-16.96-16.46-1.96-4.68-3.97-9.84-2.85-14.98z"/></g></svg>

<?xml version="1.0" encoding="UTF-8" ?>
<!DOCTYPE svg PUBLIC "-//W3C//DTD SVG 1.1//EN" "http://www.w3.org/Graphics/SVG/1.1/DTD/svg11.dtd">
<svg width="337pt" height="327pt" viewBox="0 0 337 327" version="1.1" xmlns="http://www.w3.org/2000/svg">
<g id="#fefefeff">
<path fill="#fefefe" opacity="1.00" d=" M 137.50 87.00 C 156.98 86.14 176.50 86.62 196.00 86.62 C 198.92 86.62 201.86 86.61 204.78 86.91 C 214.89 88.12 225.13 86.79 235.22 88.19 C 241.14 88.67 247.12 88.30 253.02 89.29 C 261.08 89.68 269.21 89.81 277.16 91.37 C 283.83 92.67 289.13 97.73 292.50 103.40 C 295.61 108.67 295.43 114.96 296.14 120.84 C 297.03 133.55 298.56 146.22 298.65 158.98 C 300.57 189.55 299.01 220.21 296.50 250.70 C 295.89 256.96 295.96 263.55 293.08 269.31 C 289.21 276.84 281.52 282.41 272.98 283.02 C 258.73 284.03 244.49 285.34 230.20 285.75 C 218.18 286.92 206.06 286.06 194.04 287.26 C 177.35 287.38 160.67 287.40 143.99 287.25 C 132.34 286.06 120.60 286.88 108.96 285.73 C 95.29 285.37 81.67 284.20 68.03 283.33 C 62.69 282.87 57.13 282.21 52.48 279.33 C 45.61 275.22 41.49 267.41 40.96 259.53 C 38.89 232.73 37.43 205.88 37.71 179.00 C 38.52 156.76 39.39 134.51 41.56 112.35 C 42.33 104.23 47.62 96.80 54.89 93.18 C 60.43 90.53 66.69 90.64 72.68 90.24 C 78.21 89.41 83.82 89.69 89.35 88.89 C 94.85 88.27 100.39 88.74 105.89 88.16 C 116.38 86.84 127.00 88.02 137.50 87.00 M 124.42 139.73 C 106.79 144.67 89.29 150.25 72.41 157.40 C 69.00 159.05 65.04 160.40 62.81 163.68 C 59.33 170.87 62.55 181.93 71.15 183.53 C 76.76 184.08 81.87 181.07 87.04 179.35 C 100.88 173.94 114.89 168.96 129.04 164.42 C 131.93 163.41 135.15 162.51 137.08 159.95 C 140.32 155.80 140.17 149.67 137.53 145.26 C 135.13 140.53 129.50 138.15 124.42 139.73 M 206.41 139.59 C 198.56 141.62 194.90 152.37 199.14 159.08 C 201.14 162.20 204.82 163.37 208.14 164.49 C 219.17 167.84 229.90 172.07 240.77 175.86 C 247.65 178.21 254.20 181.52 261.26 183.33 C 264.88 184.31 268.86 183.17 271.44 180.45 C 275.26 176.18 276.30 169.69 274.36 164.35 C 273.40 161.63 270.57 160.45 268.20 159.25 C 253.57 152.41 238.09 147.69 222.78 142.66 C 217.43 141.26 212.06 138.77 206.41 139.59 M 119.54 198.66 C 118.42 203.80 120.43 208.96 122.39 213.64 C 125.60 220.99 131.26 228.05 139.35 230.10 C 145.06 231.14 151.28 231.26 156.57 228.53 C 161.38 226.39 164.73 222.18 168.21 218.41 C 172.00 222.08 175.37 226.47 180.33 228.64 C 185.32 231.09 191.14 231.08 196.52 230.23 C 206.00 228.11 212.18 219.38 215.36 210.74 C 216.57 206.96 218.36 202.85 217.11 198.86 C 215.91 194.95 209.84 194.46 207.64 197.62 C 205.18 202.85 204.17 208.84 200.49 213.46 C 198.21 216.37 194.81 218.72 190.97 218.56 C 184.44 219.02 179.70 213.42 176.77 208.26 C 174.42 204.39 173.06 198.73 167.99 197.64 C 164.88 198.17 162.88 200.95 161.72 203.68 C 159.47 208.71 156.67 213.83 151.88 216.87 C 147.72 219.50 141.85 219.18 138.28 215.69 C 133.10 211.37 131.82 204.48 129.36 198.57 C 127.68 194.36 121.23 194.57 119.54 198.66 Z" />
</g>
<g id="#25aee5ff">
<path fill="#25aee5" opacity="1.00" d=" M 99.96 11.67 C 105.57 9.51 112.66 10.62 116.53 15.48 C 122.37 22.48 127.37 30.14 132.57 37.62 C 136.47 43.16 139.35 49.39 143.71 54.61 C 160.15 54.54 176.58 54.64 193.01 54.55 C 197.69 47.04 202.08 39.35 207.31 32.20 C 211.69 26.30 215.38 19.83 220.49 14.51 C 226.52 8.67 236.70 10.03 242.59 15.39 C 247.68 19.73 251.57 27.42 248.31 33.93 C 244.10 41.90 237.77 48.47 233.09 56.15 C 247.40 56.66 261.69 57.59 275.96 58.77 C 290.91 60.07 305.40 67.34 314.76 79.18 C 322.87 88.88 326.95 101.47 327.57 114.00 C 330.93 146.88 332.41 179.99 331.00 213.03 C 330.40 227.49 329.37 241.94 328.12 256.37 C 327.39 263.55 326.75 270.83 324.24 277.66 C 318.05 295.07 302.80 309.09 284.78 313.37 C 272.53 316.06 259.91 315.77 247.48 316.95 C 230.03 318.41 212.49 318.17 195.01 319.27 C 178.00 319.37 160.99 319.48 143.98 319.15 C 133.67 318.47 123.32 318.50 112.99 318.31 C 94.18 316.61 75.21 316.71 56.47 314.13 C 37.94 311.50 21.26 298.71 13.86 281.53 C 9.73 272.55 8.75 262.60 8.35 252.86 C 4.51 206.64 4.98 160.09 9.34 113.93 C 9.76 105.43 11.67 96.93 15.55 89.32 C 23.09 74.03 38.03 62.78 54.83 59.85 C 70.78 57.73 86.90 57.15 102.96 56.14 C 98.67 48.47 92.22 42.24 88.07 34.50 C 84.30 25.24 90.68 14.39 99.96 11.67 M 137.50 87.00 C 127.00 88.02 116.38 86.84 105.89 88.16 C 100.39 88.74 94.85 88.27 89.35 88.89 C 83.82 89.69 78.21 89.41 72.68 90.24 C 66.69 90.64 60.43 90.53 54.89 93.18 C 47.62 96.80 42.33 104.23 41.56 112.35 C 39.39 134.51 38.52 156.76 37.71 179.00 C 37.43 205.88 38.89 232.73 40.96 259.53 C 41.49 267.41 45.61 275.22 52.48 279.33 C 57.13 282.21 62.69 282.87 68.03 283.33 C 81.67 284.20 95.29 285.37 108.96 285.73 C 120.60 286.88 132.34 286.06 143.99 287.25 C 160.67 287.40 177.35 287.38 194.04 287.26 C 206.06 286.06 218.18 286.92 230.20 285.75 C 244.49 285.34 258.73 284.03 272.98 283.02 C 281.52 282.41 289.21 276.84 293.08 269.31 C 295.96 263.55 295.89 256.96 296.50 250.70 C 299.01 220.21 300.57 189.55 298.65 158.98 C 298.56 146.22 297.03 133.55 296.14 120.84 C 295.43 114.96 295.61 108.67 292.50 103.40 C 289.13 97.73 283.83 92.67 277.16 91.37 C 269.21 89.81 261.08 89.68 253.02 89.29 C 247.12 88.30 241.14 88.67 235.22 88.19 C 225.13 86.79 214.89 88.12 204.78 86.91 C 201.86 86.61 198.92 86.62 196.00 86.62 C 176.50 86.62 156.98 86.14 137.50 87.00 Z" />
<path fill="#25aee5" opacity="1.00" d=" M 124.42 139.73 C 129.50 138.15 135.13 140.53 137.53 145.26 C 140.17 149.67 140.32 155.80 137.08 159.95 C 135.15 162.51 131.93 163.41 129.04 164.42 C 114.89 168.96 100.88 173.94 87.04 179.35 C 81.87 181.07 76.76 184.08 71.15 183.53 C 62.55 181.93 59.33 170.87 62.81 163.68 C 65.04 160.40 69.00 159.05 72.41 157.40 C 89.29 150.25 106.79 144.67 124.42 139.73 Z" />
<path fill="#25aee5" opacity="1.00" d=" M 206.41 139.59 C 212.06 138.77 217.43 141.26 222.78 142.66 C 238.09 147.69 253.57 152.41 268.20 159.25 C 270.57 160.45 273.40 161.63 274.36 164.35 C 276.30 169.69 275.26 176.18 271.44 180.45 C 268.86 183.17 264.88 184.31 261.26 183.33 C 254.20 181.52 247.65 178.21 240.77 175.86 C 229.90 172.07 219.17 167.84 208.14 164.49 C 204.82 163.37 201.14 162.20 199.14 159.08 C 194.90 152.37 198.56 141.62 206.41 139.59 Z" />
<path fill="#25aee5" opacity="1.00" d=" M 119.54 198.66 C 121.23 194.57 127.68 194.36 129.36 198.57 C 131.82 204.48 133.10 211.37 138.28 215.69 C 141.85 219.18 147.72 219.50 151.88 216.87 C 156.67 213.83 159.47 208.71 161.72 203.68 C 162.88 200.95 164.88 198.17 167.99 197.64 C 173.06 198.73 174.42 204.39 176.77 208.26 C 179.70 213.42 184.44 219.02 190.97 218.56 C 194.81 218.72 198.21 216.37 200.49 213.46 C 204.17 208.84 205.18 202.85 207.64 197.62 C 209.84 194.46 215.91 194.95 217.11 198.86 C 218.36 202.85 216.57 206.96 215.36 210.74 C 212.18 219.38 206.00 228.11 196.52 230.23 C 191.14 231.08 185.32 231.09 180.33 228.64 C 175.37 226.47 172.00 222.08 168.21 218.41 C 164.73 222.18 161.38 226.39 156.57 228.53 C 151.28 231.26 145.06 231.14 139.35 230.10 C 131.26 228.05 125.60 220.99 122.39 213.64 C 120.43 208.96 118.42 203.80 119.54 198.66 Z" />
</g>
</svg>
